portfolio/ecw/static/images/icons/icon-download-2.svg

<?xml version="1.0" encoding="UTF-8"?>
<svg width="108px" height="84px" viewBox="0 0 108 84" version="1.1" xmlns="http://www.w3.org/2000/svg" xmlns:xlink="http://www.w3.org/1999/xlink">
    <!-- Generator: Sketch 54.1 (76490) - https://sketchapp.com -->
    <title>icon-download-2</title>
    <desc>Created with Sketch.</desc>
    <defs>
        <polygon id="path-1" points="0.0003958 0.0006049 37.8974792 0.0006049 37.8974792 61.4539463 0.0003958 61.4539463"></polygon>
        <polygon id="path-3" points="0.0003958 0.0006049 37.8974792 0.0006049 37.8974792 61.4539463 0.0003958 61.4539463"></polygon>
    </defs>
    <g id="Page-1" stroke="none" stroke-width="1" fill="none" fill-rule="evenodd">
        <g id="icon-download-2">
            <circle id="Oval-Copy-3" fill="#CD171A" fill-rule="nonzero" cx="66.5003958" cy="41.9539463" r="41.5"></circle>
            <circle id="Oval-Copy-4" fill="#CD171A" fill-rule="nonzero" cx="20.5003958" cy="20.9539463" r="20.5"></circle>
            <g id="Fill-1-Clipped" transform="translate(47.000000, 10.000000)">
                <mask id="mask-2" fill="white">
                    <use xlink:href="#path-1"></use>
                </mask>
                <g id="path-1"></g>
                <path d="M18.8179167,58.8017073 C18.859875,58.8017073 19.064125,58.8024634 19.1013333,58.7941463 C19.09975,58.7828049 19.1345833,58.7208049 19.168625,58.5892439 L19.168625,58.5877317 C23.1815833,43.2593659 27.7051667,35.0420976 31.0072083,29.0424634 C33.4882917,24.536878 35.1270417,21.560122 35.1270417,17.9603415 C35.1270417,10.5959512 28.94175,2.6463415 18.9493333,2.6463415 C8.9569167,2.6463415 2.7708333,10.5959512 2.7708333,17.9603415 C2.7708333,21.560122 4.4095833,24.536878 6.8906667,29.0424634 C10.1927083,35.0420976 14.7162917,43.2593659 18.7284583,58.5877317 C18.7625,58.7147561 18.79575,58.7782683 18.8107917,58.8024634 C18.8131667,58.8024634 18.8155417,58.8017073 18.8179167,58.8017073 M18.9493333,61.4540976 C17.4720833,61.4540976 16.4120417,60.643561 16.04075,59.2304146 C12.1085417,44.2097805 7.6752083,36.1550732 4.4372917,30.2741463 C1.8612083,25.5946585 0,22.2133902 0,17.9603415 C0,12.8506341 2.185,8.1719024 6.1520417,4.7845854 C9.7129583,1.7443171 14.3774583,0 18.9493333,0 C23.5212083,0 28.1865,1.7443171 31.746625,4.7845854 C35.7136667,8.1719024 37.897875,12.8506341 37.897875,17.9603415 C37.897875,22.2133902 36.0366667,25.5946585 33.4605833,30.2741463 C30.2226667,36.1550732 25.7893333,44.2097805 21.8579167,59.2296585 C21.4882083,60.643561 20.4281667,61.4540976 18.9493333,61.4540976" id="Fill-1" fill="#FEFEFE" fill-rule="nonzero" mask="url(#mask-2)"></path>
            </g>
            <g id="Fill-4-Clipped" transform="translate(47.000000, 10.000000)">
                <mask id="mask-4" fill="white">
                    <use xlink:href="#path-3"></use>
                </mask>
                <g id="path-1"></g>
                <path d="M19.0008015,10.0569686 C13.949451,10.0569686 9.8400564,13.8239136 9.8400564,18.4543182 C9.8400564,23.0839791 13.949451,26.8509241 19.0008015,26.8509241 C24.052152,26.8509241 28.1607352,23.0839791 28.1607352,18.4543182 C28.1607352,13.8239136 24.052152,10.0569686 19.0008015,10.0569686 M19.0008015,29.4539463 C12.383581,29.4539463 7.0003958,24.51936 7.0003958,18.4543182 C7.0003958,12.3885327 12.383581,7.4539463 19.0008015,7.4539463 C25.6172107,7.4539463 31.0003958,12.3885327 31.0003958,18.4543182 C31.0003958,24.51936 25.6172107,29.4539463 19.0008015,29.4539463" id="Fill-4" fill="#FEFEFE" fill-rule="nonzero" mask="url(#mask-4)"></path>
            </g>
            <text id="2" fill="#FFFFFF" font-family="TisaSansOT, Tisa Sans OT" font-size="25" font-weight="normal">
                <tspan x="11.2503959" y="26.4539463">2</tspan>
            </text>
        </g>
    </g>
</svg>

<svg width="108" height="84" xmlns="http://www.w3.org/2000/svg" xmlns:xlink="http://www.w3.org/1999/xlink"><defs><path id="a" d="M0 0h37.897v61.454H0z"/><path id="c" d="M0 0h37.897v61.454H0z"/></defs><g fill="none" fill-rule="evenodd"><circle fill="#CD171A" fill-rule="nonzero" cx="66.5" cy="41.954" r="41.5"/><circle fill="#CD171A" fill-rule="nonzero" cx="20.5" cy="20.954" r="20.5"/><g transform="translate(47 10)"><mask id="b" fill="#fff"><use xlink:href="#a"/></mask><path d="M18.818 58.802c.042 0 .246 0 .283-.008-.001-.011.034-.073.068-.205v-.001c4.013-15.329 8.536-23.546 11.838-29.546 2.481-4.505 4.12-7.482 4.12-11.082 0-7.364-6.185-15.314-16.178-15.314-9.992 0-16.178 7.95-16.178 15.314 0 3.6 1.639 6.577 4.12 11.082 3.302 6 7.825 14.217 11.837 29.546.034.127.068.19.083.214h.007m.131 2.652c-1.477 0-2.537-.81-2.908-2.224-3.932-15.02-8.366-23.075-11.604-28.956C1.861 25.594 0 22.214 0 17.96c0-5.11 2.185-9.788 6.152-13.175C9.713 1.745 14.377 0 18.949 0c4.572 0 9.237 1.744 12.798 4.785 3.967 3.387 6.15 8.066 6.15 13.175 0 4.253-1.86 7.635-4.436 12.314-3.238 5.881-7.672 13.936-11.603 28.956-.37 1.414-1.43 2.224-2.909 2.224" fill="#FEFEFE" fill-rule="nonzero" mask="url(#b)"/></g><g transform="translate(47 10)"><mask id="d" fill="#fff"><use xlink:href="#c"/></mask><path d="M19 10.057c-5.05 0-9.16 3.767-9.16 8.397 0 4.63 4.11 8.397 9.16 8.397 5.052 0 9.16-3.767 9.16-8.397 0-4.63-4.108-8.397-9.16-8.397m0 19.397c-6.616 0-12-4.935-12-11s5.384-11 12-11c6.617 0 12 4.935 12 11s-5.383 11-12 11" fill="#FEFEFE" fill-rule="nonzero" mask="url(#d)"/></g><text fill="#FFF" font-family="TisaSansOT, Tisa Sans OT" font-size="25"><tspan x="11.25" y="26.454">2</tspan></text></g></svg>
